packages/foundations/assets/icons/functional/images/technology/augmented_reality_28.svg

<svg width="28" height="28" viewBox="0 0 28 28" fill="none" xmlns="http://www.w3.org/2000/svg">
<g clip-path="url(#clip0_187_552)">
<path fill-rule="evenodd" clip-rule="evenodd" d="M13.9989 20.1236C14.4477 20.1236 14.8733 20.4885 14.8739 20.9986L14.8733 22.5029L15.9542 21.9611C16.386 21.7443 16.9119 21.9187 17.1287 22.3506C17.33 22.7517 17.1877 23.2826 16.7392 23.5252L14.3925 24.7031C14.1808 24.8094 13.868 24.8286 13.6129 24.7031L11.2621 23.5258C10.8302 23.309 10.6558 22.7832 10.8726 22.3513C11.0739 21.9502 11.6057 21.7316 12.0471 21.9618L13.1233 22.5012L13.1239 20.9986C13.1239 20.5153 13.5157 20.1236 13.9989 20.1236ZM24.2073 16.3326L24.2094 19.235C24.2096 19.5557 24.0246 19.8672 23.7269 20.0177L20.7432 21.5153C20.3113 21.7321 19.7855 21.5578 19.5687 21.1259C19.3674 20.7248 19.5129 20.1763 19.9582 19.9513L21.3702 19.2409L20.5106 18.6626C20.1098 18.3927 20.0036 17.8489 20.2735 17.4481C20.5242 17.0759 21.0355 16.9305 21.488 17.211L22.4578 17.8637L22.4573 16.3326C22.4569 15.8507 22.8652 15.4569 23.3316 15.4569C23.7981 15.4569 24.2073 15.8427 24.2073 16.3326ZM4.66559 15.4569C5.11432 15.4569 5.53971 15.8168 5.54059 16.3326L5.53971 17.8628L6.51021 17.2103C6.91106 16.9404 7.45481 17.0465 7.72472 17.4474C7.97535 17.8196 7.90662 18.3818 7.48763 18.6619L6.62734 19.2409L8.01026 19.9355C8.48019 20.1772 8.60105 20.709 8.39974 21.11C8.19844 21.5111 7.71972 21.7335 7.22895 21.4995L4.27306 20.0177C4.01015 19.8857 3.79059 19.5893 3.79059 19.235V16.3319C3.79059 15.8487 4.18234 15.4569 4.66559 15.4569ZM17.3675 10.2903C18.7403 10.2903 19.4267 10.8941 19.4267 12.1016C19.4267 12.5958 19.3051 12.9749 19.062 13.2389C18.8818 13.4298 18.613 13.5786 18.2555 13.6853C18.4929 13.8117 18.6902 14.0336 18.8475 14.3509C19.2644 15.2147 19.5775 15.8608 19.7869 16.2891C19.9098 16.5404 19.7037 16.8319 19.2336 16.8319C19.0005 16.8319 18.592 16.7615 18.4414 16.4601L17.5734 14.6415C17.4561 14.3944 17.3417 14.2273 17.2302 14.1403C17.1329 14.0644 16.9771 14.0265 16.7626 14.0265H16.3222V16.1476C16.3222 16.5255 16.0159 16.8319 15.6379 16.8319C15.26 16.8319 14.9537 16.5255 14.9537 16.1476V10.8355C14.9537 10.5344 15.1978 10.2903 15.4988 10.2903H17.3675ZM17.2216 11.3181H16.3192V13.0956H17.213C17.5419 13.0956 17.7736 13.0212 17.908 12.8724C18.0195 12.7516 18.0753 12.5382 18.0753 12.2321C18.0753 11.9822 18.0524 11.7997 18.0067 11.6846C17.9123 11.4403 17.6506 11.3181 17.2216 11.3181ZM8.40076 6.84626C8.59928 7.24869 8.46026 7.79532 8.01026 8.01808L6.57571 8.72081L7.48805 9.336C7.89419 9.61532 7.99819 10.1518 7.70625 10.5854C7.41432 11.019 6.90863 11.0346 6.51021 10.7876L5.53971 10.1339L5.54059 11.6653C5.54059 12.1695 5.11432 12.5403 4.66559 12.5403C4.21686 12.5403 3.79059 12.1802 3.79059 11.6659V8.68881C3.79059 8.37509 3.98429 8.04268 4.27849 7.9041L7.22895 6.44864C7.66233 6.23486 8.18697 6.41288 8.40076 6.84626ZM20.7641 6.44864L23.7215 7.9041C24.0173 8.05675 24.2013 8.33328 24.2073 8.68943V11.6659C24.2069 12.1491 23.8149 12.5406 23.3316 12.5403C22.8829 12.5399 22.4578 12.1828 22.4578 11.6659V10.1331L21.4876 10.7869C21.0868 11.0568 20.543 10.9506 20.2731 10.5498C20.0225 10.1776 20.0748 9.64519 20.5106 9.336L21.4218 8.72081L19.9899 8.01468C19.5018 7.76411 19.3768 7.24032 19.6232 6.77846C19.8696 6.3166 20.3985 6.28267 20.7641 6.44864ZM11.2651 10.2903C11.5516 10.2903 11.8109 10.4558 11.9181 10.74L13.9997 16.2595C14.1162 16.5684 14.0609 16.8318 13.5099 16.8318C13.0202 16.8318 12.8376 16.7087 12.714 16.4026L12.3263 15.4418H9.89786L9.57131 16.3208C9.43387 16.6908 9.24482 16.8318 8.755 16.8318C8.26523 16.8318 8.14709 16.5882 8.26523 16.2799L10.3876 10.74C10.4801 10.4986 10.6929 10.2903 10.959 10.2903H11.2651ZM11.1559 12.0376L10.2886 14.4661H12.0232L11.1559 12.0376ZM14.3871 3.29947L16.762 4.47101C17.1954 4.6848 17.3734 5.20944 17.1596 5.64283C16.9611 6.04526 16.4514 6.26101 15.9878 6.04045L14.8733 5.49031L14.8739 6.56109C14.8739 7.04434 14.4822 7.43609 13.9989 7.43609C13.5502 7.43609 13.1239 7.09175 13.1239 6.56109L13.1233 5.49119L12.0701 6.01186C11.5676 6.25011 11.0786 6.01372 10.8877 5.60541C10.6969 5.19709 10.7833 4.71258 11.2959 4.44243L13.6129 3.29947C13.8681 3.18535 14.0913 3.17469 14.3871 3.29947Z" fill="#1A1C1F"/>
</g>
<defs>
<clipPath id="clip0_187_552">
<rect width="28" height="28" fill="white"/>
</clipPath>
</defs>
</svg>

<svg xmlns="http://www.w3.org/2000/svg" width="28" height="28" fill="none"><g clip-path="url(#a)"><path fill="#1A1C1F" fill-rule="evenodd" d="M13.999 20.124a.88.88 0 0 1 .875.875v1.504l1.08-.542a.875.875 0 0 1 1.175.39.89.89 0 0 1-.39 1.174l-2.347 1.178a.92.92 0 0 1-.78 0l-2.35-1.177a.875.875 0 0 1-.39-1.175c.202-.4.734-.62 1.175-.39l1.076.54V21c0-.484.393-.875.876-.875m10.208-3.791.002 2.902c0 .32-.184.632-.482.783l-2.984 1.497a.875.875 0 0 1-1.174-.39.89.89 0 0 1 .39-1.174l1.411-.71-.86-.578a.875.875 0 0 1-.237-1.215c.251-.372.762-.518 1.215-.237l.97.653v-1.531c-.001-.482.407-.876.874-.876.466 0 .875.386.875.876m-19.541-.876c.448 0 .874.36.875.876l-.001 1.53.97-.653a.875.875 0 0 1 1.215.237.883.883 0 0 1-.237 1.215l-.86.579 1.382.695a.87.87 0 0 1 .39 1.174.86.86 0 0 1-1.171.39l-2.956-1.482a.89.89 0 0 1-.482-.783v-2.903c0-.483.391-.875.875-.875m12.702-5.167q2.058 0 2.059 1.812 0 .741-.365 1.137-.27.286-.806.446.355.19.591.666.625 1.296.94 1.938c.123.251-.083.543-.553.543-.234 0-.642-.07-.793-.372l-.868-1.819q-.175-.37-.343-.5-.146-.115-.467-.114h-.44v2.12a.684.684 0 1 1-1.37 0v-5.311c0-.302.245-.546.546-.546zm-.146 1.028h-.903v1.778h.894q.493 0 .695-.224.167-.18.167-.64 0-.375-.068-.547-.142-.367-.785-.367M8.4 6.846c.198.403.06.95-.39 1.172l-1.435.703.912.615c.406.28.51.816.218 1.25-.292.433-.797.449-1.196.202l-.97-.654v1.531a.884.884 0 0 1-.874.875.876.876 0 0 1-.875-.874V8.689c0-.314.193-.646.487-.785L7.23 6.45a.875.875 0 0 1 1.172.397m12.363-.397 2.957 1.455a.87.87 0 0 1 .486.785v2.977a.875.875 0 0 1-1.75 0v-1.533l-.97.654a.875.875 0 0 1-.976-1.451l.91-.615-1.431-.706c-.488-.25-.613-.775-.367-1.237.247-.461.775-.495 1.141-.33m-9.499 3.841c.287 0 .546.166.653.45L14 16.26c.116.308.06.572-.49.572-.49 0-.672-.123-.796-.43l-.388-.96H9.898l-.327.879c-.137.37-.326.51-.816.51s-.608-.243-.49-.551l2.123-5.54c.092-.241.305-.45.571-.45zm-.11 1.748-.866 2.428h1.734zm3.232-8.739 2.375 1.172a.875.875 0 0 1 .398 1.172.88.88 0 0 1-1.172.397l-1.115-.55v1.071a.875.875 0 0 1-.874.875.866.866 0 0 1-.875-.875v-1.07l-1.054.52a.863.863 0 0 1-1.182-.406c-.191-.408-.105-.892.408-1.163L13.613 3.3c.255-.114.478-.124.774 0" clip-rule="evenodd"/></g><defs><clipPath id="a"><path fill="#fff" d="M0 0h28v28H0z"/></clipPath></defs></svg>
